icon/pk/unlink.svg

<svg viewBox="0 0 48 48" fill="none" xmlns="http://www.w3.org/2000/svg" height="1em" width="1em">
  <path d="M25.8927 16.0307L18.1145 8.2525C15.2506 5.38866 10.7031 5.29302 7.9572 8.0389C5.21132 10.7848 5.30696 15.3323 8.1708 18.1962L15.949 25.9744" stroke="black" stroke-width="4" stroke-linecap="round" stroke-linejoin="round"/>
  <path d="M31.9161 22.0707L39.6943 29.8489C42.5581 32.7127 42.9291 37.1233 39.9079 40.0062C36.8867 42.8891 32.6144 42.6564 29.7506 39.7926L21.9724 32.0144" stroke="black" stroke-width="4" stroke-linecap="round" stroke-linejoin="round"/>
  <path d="M21.2384 21.0759L17.3493 17.1868" stroke="black" stroke-width="4" stroke-linecap="round" stroke-linejoin="round"/>
  <path d="M30.3131 30.1504L26.424 26.2613" stroke="black" stroke-width="4" stroke-linecap="round" stroke-linejoin="round"/>
</svg>

<svg width="48" height="48" fill="none" xmlns="http://www.w3.org/2000/svg"><path d="m25.893 16.03-7.779-7.778c-2.863-2.863-7.41-2.959-10.157-.213-2.746 2.746-2.65 7.293.214 10.157l7.778 7.778M31.916 22.07l7.778 7.779c2.864 2.864 3.235 7.274.214 10.157s-7.294 2.65-10.157-.213l-7.779-7.779M21.238 21.076l-3.889-3.89M30.313 30.15l-3.889-3.889" stroke="#000" stroke-width="4" stroke-linecap="round" stroke-linejoin="round"/></svg>
